X: 1
T: Morgan Magan
C: Turlough O'Carolan
M: C|
R: reel
S: Roaring Jelly collection, slightly simplified.
K: G
D2 |\
"G"D2G2 G2A2 | cBAG "Em"Bcd2 | "Am"e2A2 "A7"A2G2 | "D7"FGEF D2EF |\
"G"G2G2 GFGA | G2FE D2G2 | "D"FGA2 "A7"A2EG | "D7"F2D2 DEFD |
"G"G2G2 "D7"AGAF | "G"G4 G2B2 | "C"c3B A2Bc | "G"d4 "C"e4 |\
"G"d2B2 cBAG | "D"AGFE D2EF | "G"G2G2 "D7"AGAF | "G"G4 z2 |]
DC |\
"G"B,2D2 D2EF | G2D2 B,CD2 | G2D2 B,CD2 | "Am"EDCB, "D7"A,3C |\
"G"B,G,B,C D2B,2 | "C"E2C2 "G"D2B,2 | "Am"C2A,2 "G"D2G2 | "D"F2D2 D2GF |
"C"E2C2 C3D | E2C2 C3E | "D"F2D2 D3E | "D7"FGEF D2Bc |\
"G"d2dB "C"edcB | "Am"cBAG "D"AGFE | "G"D2G2 "D7"AGAF | "G"G4 z2 |]
